svg/UnitedNations-Flags/flag-gr.svg

<svg height="256" viewBox="0 0 27 18" width="256" xmlns="http://www.w3.org/2000/svg"><path fill="#000080" d="m0 0h27v18h-27z"/><path d="m4 0h2v4h4v2h-4v4h21v2h-27v-2h4v-4h-4v-2h4v-4m6 2h17v2h-17v-2m0 4h17v2h-17v-2m-10 4v2-2m0 4h27v2h-27v-2" fill="#fff"/></svg>

<?xml version="1.0" encoding="UTF-8" standalone="no"?>
<svg height="256" id="svg2494" inkscape:output_extension="org.inkscape.output.svg.inkscape" inkscape:version="0.46" sodipodi:docname="Flag_of_Greece.svg" sodipodi:version="0.32" version="1.0" viewBox="0 0 27 18" width="256" xmlns="http://www.w3.org/2000/svg" xmlns:cc="http://creativecommons.org/ns#" xmlns:dc="http://purl.org/dc/elements/1.1/" xmlns:inkscape="http://www.inkscape.org/namespaces/inkscape" xmlns:rdf="http://www.w3.org/1999/02/22-rdf-syntax-ns#" xmlns:sodipodi="http://sodipodi.sourceforge.net/DTD/sodipodi-0.dtd" xmlns:svg="http://www.w3.org/2000/svg">
  <metadata>
    <rdf:RDF xmlns:cc="http://web.resource.org/cc/" xmlns:dc="http://purl.org/dc/elements/1.1/" xmlns:rdf="http://www.w3.org/1999/02/22-rdf-syntax-ns#">
      <cc:Work rdf:about="">
        <dc:title></dc:title>
        <dc:description></dc:description>
        <dc:subject>
          <rdf:Bag>
            <rdf:li>unsorted</rdf:li>
          </rdf:Bag>
        </dc:subject>
        <dc:publisher>
          <cc:Agent rdf:about="http://www.openclipart.org/">
            <dc:title>Open Clip Art Library, Source: Wikimedia Commons, Source: Wikimedia Commons, Source: Wikimedia Commons, Source: Wikimedia Commons</dc:title>
          </cc:Agent>
        </dc:publisher>
        <dc:creator>
          <cc:Agent>
            <dc:title></dc:title>
          </cc:Agent>
        </dc:creator>
        <dc:rights>
          <cc:Agent>
            <dc:title></dc:title>
          </cc:Agent>
        </dc:rights>
        <dc:date></dc:date>
        <dc:format>image/svg+xml</dc:format>
        <dc:type rdf:resource="http://purl.org/dc/dcmitype/StillImage"/>
        <cc:license rdf:resource="http://en.wikipedia.org/wiki/Public_domain"/>
        <dc:language>en</dc:language>
      </cc:Work>
    </rdf:RDF>
  </metadata>
  <defs id="defs2501">
    <inkscape:perspective id="perspective2505" inkscape:persp3d-origin="405 : 180 : 1" inkscape:vp_x="0 : 270 : 1" inkscape:vp_y="0 : 1000 : 0" inkscape:vp_z="810 : 270 : 1" sodipodi:type="inkscape:persp3d"/>
  </defs>
  <sodipodi:namedview bordercolor="#666666" borderopacity="1.0" gridtolerance="10.0" guidetolerance="10.0" id="base" inkscape:current-layer="svg2494" inkscape:cx="405" inkscape:cy="270" inkscape:pageopacity="0.0" inkscape:pageshadow="2" inkscape:window-height="674" inkscape:window-width="640" inkscape:window-x="57" inkscape:window-y="182" inkscape:zoom="0.69012346" objecttolerance="10.0" pagecolor="#ffffff" showgrid="false"/>
  <rect height="18" id="rect2496" style="fill:#000080" width="27" x="0" y="0"/>
  <path d="M 4,0 L 6,0 L 6,4 L 10,4 L 10,6 L 6,6 L 6,10 L 27,10 L 27,12 L 0,12 L 0,10 L 4,10 L 4,6 L 0,6 L 0,4 L 4,4 L 4,0 z M 10,2 L 27,2 L 27,4 L 10,4 L 10,2 z M 10,6 L 27,6 L 27,8 L 10,8 L 10,6 z M 0,10 L 0,12 L 0,10 z M 0,14 L 27,14 L 27,16 L 0,16 L 0,14 z" id="path2498" style="fill:#ffffff"/>
</svg>
